img/delivery.svg

<svg width="48" height="48" viewBox="0 0 48 48" fill="none" xmlns="http://www.w3.org/2000/svg">
<path d="M40.5 34.3125C39.464 34.3125 38.625 35.1515 38.625 36.1875C38.625 37.2235 39.464 38.0625 40.5 38.0625C41.536 38.0625 42.375 37.2235 42.375 36.1875C42.375 35.1515 41.536 34.3125 40.5 34.3125Z" fill="#17696A"/>
<path d="M39.5625 26.8125C39.045 26.8125 38.625 27.2325 38.625 27.75C38.625 28.2675 39.045 28.6875 39.5625 28.6875C40.08 28.6875 40.5 28.2675 40.5 27.75C40.5 27.2325 40.08 26.8125 39.5625 26.8125Z" fill="#17696A"/>
<path d="M11.8125 34.3125C10.7765 34.3125 9.9375 35.1515 9.9375 36.1875C9.9375 37.2235 10.7765 38.0625 11.8125 38.0625C12.8485 38.0625 13.6875 37.2235 13.6875 36.1875C13.6875 35.1515 12.8485 34.3125 11.8125 34.3125Z" fill="#17696A"/>
<path d="M44.0596 23.1226L42.4431 16.6567C43.0177 16.1071 43.3125 15.3779 43.3125 14.625C43.3125 13.0741 42.0509 11.8125 40.5 11.8125H33V9C33 7.4491 31.7384 6.1875 30.1875 6.1875H2.8125C1.2616 6.1875 0 7.4491 0 9V33.375C0 34.9259 1.2616 36.1875 2.8125 36.1875H6.1875C6.1875 39.2893 8.71069 41.8125 11.8125 41.8125C14.9143 41.8125 17.4375 39.2893 17.4375 36.1875H34.875C34.875 39.2893 37.3982 41.8125 40.5 41.8125C43.6018 41.8125 46.125 39.2893 46.125 36.1875C46.125 36.134 46.1224 36.0809 46.121 36.0275C47.2141 35.6418 48 34.5985 48 33.375V27.75C48 25.4194 46.2905 23.4814 44.0596 23.1226ZM40.7054 17.4375L42.1117 23.0625H34.3257L36.4753 20.9128C36.8416 20.5466 36.8416 19.9534 36.4753 19.5872C36.1091 19.2209 35.5159 19.2209 35.1497 19.5872L33 21.7365V17.4375H40.7054ZM41.4375 14.625C41.4375 15.1425 41.0175 15.5625 40.5 15.5625H33V13.6875H40.5C41.0171 13.6875 41.4375 14.1079 41.4375 14.625ZM11.8125 39.9375C9.74487 39.9375 8.0625 38.2551 8.0625 36.1875C8.0625 34.0917 9.77527 32.4375 11.8125 32.4375C13.8545 32.4375 15.5625 34.0961 15.5625 36.1875C15.5625 38.2551 13.8801 39.9375 11.8125 39.9375ZM17.1156 34.3125C16.3326 32.1002 14.2134 30.5625 11.8125 30.5625C9.41052 30.5625 7.29053 32.1013 6.50903 34.3125H2.8125C2.29541 34.3125 1.875 33.8921 1.875 33.375V9C1.875 8.48291 2.29541 8.0625 2.8125 8.0625H30.1875C30.7046 8.0625 31.125 8.48291 31.125 9V34.3125H17.1156ZM40.5 39.9375C38.4324 39.9375 36.75 38.2551 36.75 36.1875C36.75 34.0917 38.4628 32.4375 40.5 32.4375C42.542 32.4375 44.25 34.0961 44.25 36.1875C44.25 38.2551 42.5676 39.9375 40.5 39.9375ZM45.7365 34.1334C44.9048 32.0175 42.8357 30.5625 40.5 30.5625C38.098 30.5625 35.978 32.1013 35.1965 34.3125H33V24.9375H43.3125C44.5345 24.9375 45.5768 25.7212 45.9639 26.8125H43.3125C42.7947 26.8125 42.375 27.2322 42.375 27.75C42.375 28.2678 42.7947 28.6875 43.3125 28.6875H46.125V33.375C46.125 33.6866 45.9712 33.9628 45.7365 34.1334Z" fill="#17696A"/>
<path d="M16.5 11.8125C11.8477 11.8125 8.0625 15.5977 8.0625 20.25C8.0625 24.9023 11.8477 28.6875 16.5 28.6875C21.1523 28.6875 24.9375 24.9023 24.9375 20.25C24.9375 15.5977 21.1523 11.8125 16.5 11.8125ZM16.5 26.8125C12.8815 26.8125 9.9375 23.8685 9.9375 20.25C9.9375 16.6315 12.8815 13.6875 16.5 13.6875C20.1185 13.6875 23.0625 16.6315 23.0625 20.25C23.0625 23.8685 20.1185 26.8125 16.5 26.8125Z" fill="#17696A"/>
<path d="M20.25 19.3125H17.4375V16.5C17.4375 15.9822 17.0178 15.5625 16.5 15.5625C15.9822 15.5625 15.5625 15.9822 15.5625 16.5V20.25C15.5625 20.7678 15.9822 21.1875 16.5 21.1875H20.25C20.7678 21.1875 21.1875 20.7678 21.1875 20.25C21.1875 19.7322 20.7678 19.3125 20.25 19.3125Z" fill="#17696A"/>
</svg>

<svg width="48" height="48" fill="none" xmlns="http://www.w3.org/2000/svg"><path d="M40.5 34.313a1.874 1.874 0 10-.001 3.748 1.874 1.874 0 00.001-3.748zM39.563 26.813a.938.938 0 100 1.875.938.938 0 000-1.875zM11.813 34.313a1.874 1.874 0 10-.002 3.748 1.874 1.874 0 00.002-3.748z" fill="#17696A"/><path d="M44.06 23.123l-1.617-6.466a2.79 2.79 0 00.87-2.032 2.816 2.816 0 00-2.813-2.813H33V9a2.816 2.816 0 00-2.813-2.813H2.813A2.816 2.816 0 000 9v24.375a2.816 2.816 0 002.813 2.813h3.374a5.631 5.631 0 005.625 5.624 5.631 5.631 0 005.626-5.624h17.437a5.631 5.631 0 005.625 5.624 5.631 5.631 0 005.625-5.624c0-.054-.003-.107-.004-.16A2.817 2.817 0 0048 33.375V27.75c0-2.33-1.71-4.269-3.94-4.627zm-3.355-5.686l1.407 5.625h-7.786l2.15-2.15a.937.937 0 10-1.326-1.325L33 21.737v-4.3h7.705zm.733-2.812c0 .518-.42.938-.938.938H33v-1.876h7.5c.517 0 .938.42.938.938zM11.811 39.938a3.754 3.754 0 01-3.75-3.75 3.756 3.756 0 013.75-3.75 3.756 3.756 0 013.75 3.75 3.754 3.754 0 01-3.75 3.75zm5.304-5.626a5.645 5.645 0 00-5.303-3.75 5.644 5.644 0 00-5.304 3.75H2.812a.938.938 0 01-.937-.937V9c0-.517.42-.938.938-.938h27.375c.517 0 .937.42.937.938v25.313h-14.01zM40.5 39.938a3.754 3.754 0 01-3.75-3.75 3.756 3.756 0 013.75-3.75 3.756 3.756 0 013.75 3.75 3.754 3.754 0 01-3.75 3.75zm5.236-5.805a5.646 5.646 0 00-5.236-3.57 5.644 5.644 0 00-5.303 3.75H33v-9.376h10.313c1.221 0 2.264.784 2.65 1.875h-2.65a.937.937 0 100 1.875h2.812v4.688a.937.937 0 01-.389.758z" fill="#17696A"/><path d="M16.5 11.813c-4.652 0-8.438 3.785-8.438 8.437 0 4.652 3.786 8.438 8.438 8.438 4.652 0 8.438-3.786 8.438-8.438 0-4.652-3.786-8.438-8.438-8.438zm0 15a6.57 6.57 0 01-6.563-6.563 6.57 6.57 0 016.563-6.563 6.57 6.57 0 016.563 6.563 6.57 6.57 0 01-6.563 6.563z" fill="#17696A"/><path d="M20.25 19.313h-2.813V16.5a.937.937 0 10-1.875 0v3.75c0 .518.42.938.938.938h3.75a.937.937 0 100-1.875z" fill="#17696A"/></svg>
